X: 162
T: 8. La double inconstence
T: la Double Inconstence
B: Robert Landrin "Potpourri fran\,cois des contre-danse ancienne tel quil se danse chez la Reine ..." 1760 p.16 #2 dance 05 #8
S: http://memory.loc.gov/cgi-bin/query/D?musdibib:2:./temp/~ammem_EbRS:
Z: 2014 John Chambers <jc:trillian.mit.edu>
M: 6/8
L: 1/8
K: G
% - - - - - - - - - - - - - - - - - - - - - - - - -
!segno!G2G |\
ABc BAB | G2D G2G | ABc BAB | HG3 |][| "2.f. en rondeau"B2c |\
d2d dcB | A2A c2c | B2B ege | d2d !segno!y|]
% - - - - - - - - - - - - - - - - - - - - - - - - -

%%sep 1 1 500
%%sep 1 1 500
